X:193
T:Don't Be Teasing
C:Joe Buchanan's Scottish Tome - Page 276.1
I:276 1
Z:Carl Allison
S:Irish Jigs
R:Jig
L:1/8
M:6/8
K:D
B | "D"AFD DFD | "D"AFA "G"dcB | "D"AFD "Bm"DFD | "Em"EFG "G"Bcd |
"D"AFD DFD | "D"AFA d2 A | "E7"B/c/dB "A7"cec | "D"d3 d2 :|
g | "D"afd dcd | "G"Bcd "D"AFD | "D"afd "Bm"dcd | "E7"Bcd "A"e2 f |
"D"afd dcd | "G"Bed "A"cBA | "G"Bgf "A"ecA | "D"d3 d2 :|

